svg/redo.svg

<svg xmlns="http://www.w3.org/2000/svg" viewBox="0 0 63 64" enable-background="new 0 0 63 64"><style type="text/css">.st0{fill:#333333;}</style><title>redo</title><desc>Created with Sketch.</desc><path class="st0" d="M61.9 1.2c0-1.1-.7-1.4-1.5-.6l-7.3 7.3c-5.7-4.9-13-7.9-21.1-7.9-17.7 0-32 14.3-32 32s14.3 32 32 32c10.1 0 19-4.6 24.9-11.9l-4.4-4.1c-4.7 6.1-12.2 10-20.5 10-14.4 0-26-11.6-26-26s11.6-26 26-26c6.4 0 12.3 2.3 16.8 6.2l-6.8 6.8c-.8.8-.5 1.4.6 1.5l18.9.6c.6 0 1-.4 1-1l-.6-18.9z"/></svg>

<?xml version="1.0" encoding="utf-8"?>
<!-- Generator: Adobe Illustrator 21.0.0, SVG Export Plug-In . SVG Version: 6.00 Build 0)  -->
<svg version="1.1" id="Layer_1" xmlns="http://www.w3.org/2000/svg" xmlns:xlink="http://www.w3.org/1999/xlink" x="0px" y="0px"
	 viewBox="0 0 63 64" style="enable-background:new 0 0 63 64;" xml:space="preserve">
<style type="text/css">
	.st0{fill:#333333;}
</style>
<title>redo</title>
<desc>Created with Sketch.</desc>
<path class="st0" d="M61.9,1.2c0-1.1-0.7-1.4-1.5-0.6l-7.3,7.3C47.4,3,40.1,0,32,0C14.3,0,0,14.3,0,32s14.3,32,32,32
	c10.1,0,19-4.6,24.9-11.9L52.5,48C47.8,54.1,40.3,58,32,58C17.6,58,6,46.4,6,32C6,17.6,17.6,6,32,6c6.4,0,12.3,2.3,16.8,6.2L42,19
	c-0.8,0.8-0.5,1.4,0.6,1.5l18.9,0.6c0.6,0,1-0.4,1-1L61.9,1.2z"/>
</svg>
